manual-assets/community/dde/common/~.svg

<?xml version="1.0" encoding="UTF-8" standalone="no"?>
<!-- Generator: Adobe Illustrator 18.1.1, SVG Export Plug-In . SVG Version: 6.00 Build 0)  -->

<svg
   xmlns:ns="&amp;ns_sfw;"
   xmlns:dc="http://purl.org/dc/elements/1.1/"
   xmlns:cc="http://creativecommons.org/ns#"
   xmlns:rdf="http://www.w3.org/1999/02/22-rdf-syntax-ns#"
   xmlns:svg="http://www.w3.org/2000/svg"
   xmlns="http://www.w3.org/2000/svg"
   xmlns:sodipodi="http://sodipodi.sourceforge.net/DTD/sodipodi-0.dtd"
   xmlns:inkscape="http://www.inkscape.org/namespaces/inkscape"
   version="1.1"
   id="图层_1"
   x="0px"
   y="0px"
   viewBox="0 0 20 20"
   enable-background="new 0 0 20 20"
   xml:space="preserve"
   sodipodi:docname="~.svg"
   width="20"
   height="20"
   inkscape:version="0.92.1 r15371"><defs
     id="defs17" /><sodipodi:namedview
     pagecolor="#ffffff"
     bordercolor="#666666"
     borderopacity="1"
     objecttolerance="10"
     gridtolerance="10"
     guidetolerance="10"
     inkscape:pageopacity="0"
     inkscape:pageshadow="2"
     inkscape:window-width="836"
     inkscape:window-height="480"
     id="namedview15"
     showgrid="false"
     fit-margin-top="0"
     fit-margin-left="0"
     fit-margin-right="0"
     fit-margin-bottom="0"
     inkscape:zoom="11.8"
     inkscape:cx="10"
     inkscape:cy="10"
     inkscape:window-x="0"
     inkscape:window-y="0"
     inkscape:window-maximized="0"
     inkscape:current-layer="图层_1" /><metadata
     id="metadata2"><ns:sfw><ns:slices /><ns:sliceSourceBounds
         width="16383"
         height="633"
         y="-188"
         x="-8121"
         bottomLeftOrigin="true" /></ns:sfw><rdf:RDF><cc:Work
         rdf:about=""><dc:format>image/svg+xml</dc:format><dc:type
           rdf:resource="http://purl.org/dc/dcmitype/StillImage" /><dc:title></dc:title></cc:Work></rdf:RDF></metadata><g
     id="g12"><path
       d="M 15.7,19.5 H 4.3 C 2.21,19.5 0.5,17.79 0.5,15.7 V 4.3 C 0.5,2.21 2.21,0.5 4.3,0.5 h 11.4 c 2.09,0 3.8,1.71 3.8,3.8 v 11.4 c 0,2.09 -1.71,3.8 -3.8,3.8 z"
       id="path4"
       inkscape:connector-curvature="0"
       style="opacity:0.1;fill:#ffffff" /><path
       stroke-miterlimit="10"
       d="m 15.5,19.5 h -11 c -2.209,0 -4,-1.791 -4,-4 v -11 c 0,-2.209 1.791,-4 4,-4 h 11 c 2.209,0 4,1.791 4,4 v 11 c 0,2.209 -1.791,4 -4,4 z"
       id="path6"
       inkscape:connector-curvature="0"
       style="fill:none;stroke:#cbcbcb;stroke-miterlimit:10" /><g
       id="g10"><path
         d="M 4.368,11.57 C 5.256,9.434 6.553,9.122 7.465,9.122 c 0.96,0 1.728,0.24 2.928,0.792 1.128,0.456 1.896,0.816 2.736,0.816 1.104,0 1.632,-0.576 2.136,-1.92 l 0.721,0.336 c -0.456,1.607 -1.488,2.544 -2.977,2.544 -1.176,0 -2.28,-0.504 -3.313,-0.96 -0.888,-0.384 -1.488,-0.648 -2.328,-0.648 -1.08,0 -1.752,0.648 -2.232,1.921 z"
         id="path8"
         inkscape:connector-curvature="0" /></g></g></svg>

<?xml version="1.0" encoding="UTF-8"?>
<svg width="20px" height="20px" viewBox="0 0 20 20" version="1.1" xmlns="http://www.w3.org/2000/svg" xmlns:xlink="http://www.w3.org/1999/xlink">
    <!-- Generator: Sketch 64 (93537) - https://sketch.com -->
    <title>~</title>
    <desc>Created with Sketch.</desc>
    <g id="页面-1" stroke="none" stroke-width="1" fill="none" fill-rule="evenodd">
        <g id="~">
            <path d="M15.7,19.5 L4.3,19.5 C2.21,19.5 0.5,17.79 0.5,15.7 L0.5,4.3 C0.5,2.21 2.21,0.5 4.3,0.5 L15.7,0.5 C17.79,0.5 19.5,2.21 19.5,4.3 L19.5,15.7 C19.5,17.79 17.79,19.5 15.7,19.5 Z" id="path4" fill="#FFFFFF" fill-rule="nonzero"></path>
            <path d="M15.5,19.5 L4.5,19.5 C2.291,19.5 0.5,17.709 0.5,15.5 L0.5,4.5 C0.5,2.291 2.291,0.5 4.5,0.5 L15.5,0.5 C17.709,0.5 19.5,2.291 19.5,4.5 L19.5,15.5 C19.5,17.709 17.709,19.5 15.5,19.5 Z" id="path6" stroke="#CBCBCB"></path>
            <g id="g10" transform="translate(4.000000, 8.000000)" fill="#000000" fill-rule="nonzero">
                <path d="M0.368,3.57 C1.256,1.434 2.553,1.122 3.465,1.122 C4.425,1.122 5.193,1.362 6.393,1.914 C7.521,2.37 8.289,2.73 9.129,2.73 C10.233,2.73 10.761,2.154 11.265,0.81 L11.986,1.146 C11.53,2.753 10.498,3.69 9.009,3.69 C7.833,3.69 6.729,3.186 5.696,2.73 C4.808,2.346 4.208,2.082 3.368,2.082 C2.288,2.082 1.616,2.73 1.136,4.003 L0.368,3.57 Z" id="path8"></path>
            </g>
        </g>
    </g>
</svg>
